icons/fill-ele-other-platform-element.svg

<svg xmlns="http://www.w3.org/2000/svg" width="32px" height="32px" viewBox="0 0 32 32" version="1.1">
    <title>fill-ele-other-platform-element</title>
    <g id="fill-ele-other-platform-element" stroke-width="1" fill-rule="evenodd">
        <path d="M5.5,2 L26.5,2 C27.5,2.021 28.328,2.359 28.984,3.016 C29.64,3.673 29.9787,4.501 30,5.5 L30,26.5 C29.9793,27.5 29.6407,28.328 28.984,28.984 C28.3273,29.64 27.4993,29.979 26.5,30 L5.5,30 C4.5,29.979 3.672,29.641 3.016,28.984 C2.36,28.327 2.0213,27.499 2,26.5 L2,5.5 C2.0207,4.5 2.3593,3.672 3.016,3.016 C3.6727,2.36 4.5007,2.021 5.5,2 Z M10.219,7.438 C7.8023,9.084 6.3077,11.251 5.735,13.938 C5.1623,16.625 5.6363,19.219 7.157,21.719 C8.8237,24.115 11.0007,25.599 13.688,26.172 C16.3753,26.745 18.9587,26.26 21.438,24.719 C21.73,24.552 21.9903,24.365 22.219,24.156 C22.3443,24.052 22.4173,23.927 22.438,23.781 C22.4587,23.635 22.4273,23.5 22.344,23.375 L21.875,22.656 C21.6457,22.302 21.3383,22.083 20.953,22 C20.5677,21.917 20.198,21.99 19.844,22.219 C18.0733,23.302 16.2347,23.641 14.328,23.235 C12.4213,22.829 10.885,21.772 9.719,20.063 C8.615,18.292 8.266,16.454 8.672,14.547 C9.078,12.64 10.1353,11.083 11.844,9.875 C13.2193,9.021 14.688,8.636 16.25,8.719 C17.812,8.802 19.2287,9.354 20.5,10.375 C20.542,10.396 20.5733,10.437 20.594,10.5 C20.698,10.625 20.7293,10.761 20.688,10.906 C20.6467,11.051 20.5633,11.176 20.438,11.281 L14.282,15.312 C13.928,15.541 13.7093,15.849 13.626,16.234 C13.5427,16.619 13.6053,16.989 13.814,17.343 L14.314,18.093 C14.418,18.239 14.543,18.328 14.689,18.359 C14.835,18.39 14.981,18.364 15.127,18.281 L24.752,12.031 C25.002,11.822 25.075,11.572 24.971,11.281 L24.971,11.25 L24.502,10.406 C22.8353,8.031 20.6583,6.557 17.971,5.984 C15.2837,5.411 12.7003,5.896 10.221,7.437 L10.219,7.438 Z M24.594,15.781 L22.656,17.031 C22.51,17.135 22.4213,17.26 22.39,17.406 C22.3587,17.552 22.395,17.687 22.499,17.812 L23.749,19.75 C23.853,19.896 23.978,19.985 24.124,20.016 C24.27,20.047 24.4053,20.011 24.53,19.907 L25.499,19.282 C25.9157,19.011 26.171,18.652 26.265,18.204 C26.359,17.756 26.2703,17.324 25.999,16.907 L25.374,15.938 C25.27,15.813 25.145,15.735 24.999,15.704 C24.853,15.673 24.7177,15.699 24.593,15.782 L24.594,15.781 Z" id="&#24418;&#29366;" fill-rule="nonzero" />
    </g>
</svg>

<svg xmlns="http://www.w3.org/2000/svg" viewBox="0 0 32 32"><path fill="currentColor" d="M5.5 2h21c1 .021 1.828.359 2.484 1.016.656.657.995 1.485 1.016 2.484v21c-.02 1-.36 1.828-1.016 2.484-.657.656-1.485.995-2.484 1.016h-21c-1-.021-1.828-.359-2.484-1.016C2.36 28.327 2.021 27.499 2 26.5v-21c.02-1 .36-1.828 1.016-2.484C3.673 2.36 4.501 2.021 5.5 2m4.719 5.438c-2.417 1.646-3.911 3.813-4.484 6.5s-.099 5.281 1.422 7.781c1.667 2.396 3.844 3.88 6.531 4.453 2.687.573 5.27.088 7.75-1.453.292-.167.552-.354.781-.563a.584.584 0 0 0 .219-.375.566.566 0 0 0-.094-.406l-.469-.719c-.23-.354-.537-.573-.922-.656-.385-.083-.755-.01-1.109.219-1.77 1.083-3.61 1.422-5.516 1.016-1.907-.406-3.443-1.463-4.609-3.172-1.104-1.771-1.453-3.609-1.047-5.516.406-1.907 1.463-3.464 3.172-4.672 1.375-.854 2.844-1.239 4.406-1.156 1.562.083 2.979.635 4.25 1.656.042.021.073.062.094.125a.424.424 0 0 1 .094.406.752.752 0 0 1-.25.375l-6.156 4.031a1.43 1.43 0 0 0-.656.922c-.083.385-.02.755.188 1.109l.5.75a.617.617 0 0 0 .375.266.608.608 0 0 0 .438-.078l9.625-6.25c.25-.209.323-.459.219-.75v-.031l-.469-.844c-1.667-2.375-3.844-3.849-6.531-4.422-2.687-.573-5.27-.088-7.75 1.453zm14.375 8.343-1.938 1.25a.618.618 0 0 0-.266.375.458.458 0 0 0 .109.406l1.25 1.938a.617.617 0 0 0 .375.266.459.459 0 0 0 .406-.109l.969-.625c.417-.271.672-.63.766-1.078.094-.448.005-.88-.266-1.297l-.625-.969a.657.657 0 0 0-.375-.234.513.513 0 0 0-.406.078z"/></svg>
